X:1
T:Argyll Lassies
M:C|
L:1/8
R:reel
D:Niall & Cillian Vallely: Callan Bridge
Z:Devin McCabe
K:EMin
G~E3 G~D3|G~E3 GBAB|G~E3 GDDG|1EFGA ~B2AB:|2EFGA ~B2Be||
|:dBed BAAe|dBed B3e|dBed B/2A/2G AB|GEGA ~B2Be|
  dBed BAAe|dBed B2 d/2e/2f|gdeg dGBG|EFGA ~B2AB||
